X:5044
T:Siobhan Sinclair's March
M:6/8
R:March
L:1/8
C:Aidan Crossey
K:G
|:G2A|B>AG B>AG|c>AE c/B/AG|F>GA B>AG|F/G/AF DGA|
B>AG B>AG|c>AE c/B/AG|F>GA c>EF|G3:||
|:G2A|B>dg B>dg|c>ea c/d/fa|f>ed d>ef|g>ab a/b/gf|
B>dg B>dg|c>ea c/d/fa|b>ag a>gf|1 c>BA:||2 c>BA G3|
